src/assets/icons-components/blocks.svg

<svg width="60" height="60" fill="none" xmlns="http://www.w3.org/2000/svg"><path stroke="#C3C2C1" d="M.5.5h59v59H.5z"/><path fill-rule="evenodd" clip-rule="evenodd" d="M29 19h11.5v11.5h-10v10H19V29h10V19Zm1.5 10H39v-8.5h-8.5V29ZM29 30.5h-8.5V39H29v-8.5Z" fill="#2E2B26"/></svg>

<svg width="60" height="60" viewBox="0 0 60 60" fill="none" xmlns="http://www.w3.org/2000/svg">
<rect x="0.5" y="0.5" width="59" height="59" stroke="#C3C2C1"/>
<path fill-rule="evenodd" clip-rule="evenodd" d="M29 19H40.5V30.5H30.5V40.5H19V29H29V19ZM30.5 29H39V20.5H30.5V29ZM29 30.5H20.5V39H29V30.5Z" fill="#2E2B26"/>
</svg>
